X:100
T: Bettelmoench
N: A0459
O: Europa, Mitteleuropa, Deutschland
N: Forster II 1540 No. 22
R: Romanze, Ballade, Lied
M: 4/2
L: 1/2
K: F
F | F2A2 | c2zc | dccB | A2z
A | AAAA | B2AA | AGGF | G2z
G | DDE2 | F2zF | AAAA | F2z
F | BBBB | B2AG | AGGF | G2z
G | DDEE | F2FF | AABG | F3

